src/img/icons/cards/mastercard.svg

<?xml version="1.0" encoding="UTF-8" standalone="no"?>
<svg width="100px" height="60px" viewBox="0 0 100 60" version="1.1" xmlns="http://www.w3.org/2000/svg" xmlns:xlink="http://www.w3.org/1999/xlink">
    <!-- Generator: Sketch 3.8.3 (29802) - http://www.bohemiancoding.com/sketch -->
    <title>MasterCard-dark</title>
    <desc>Created with Sketch.</desc>
    <defs></defs>
    <g id="Payment-badge-set" stroke="none" stroke-width="1" fill="none" fill-rule="evenodd">
        <g id="Dark-Payment-badges" transform="translate(-290.000000, -164.000000)">
            <g id="MasterCard-dark" transform="translate(290.000000, 164.000000)">
                <rect id="Rectangle" fill="#000066" x="0" y="0" width="100" height="60" rx="4"></rect>
                <path d="M56.1286209,30.4854021 C56.1286209,41.2636578 47.3919703,50 36.6140231,50 C25.8357674,50 17.0985,41.2636578 17.0985,30.4854021 C17.0985,19.7074549 25.8357674,10.9701875 36.6140231,10.9701875 C47.3919703,10.9701875 56.1286209,19.7074549 56.1286209,30.4854021" id="Fill-333" fill="#CC0000"></path>
                <path d="M62.8141062,10.9701875 C57.7705401,10.9701875 53.1766205,12.8831899 49.7126768,16.0214636 C49.0079839,16.6610843 48.3501676,17.3518992 47.7429289,18.0874321 L51.6858171,18.0874321 C52.2242827,18.7430896 52.7204976,19.4323625 53.1735365,20.1543259 L46.2549011,20.1543259 C45.841029,20.8176933 45.4647815,21.5069663 45.1304764,22.2212196 L54.2973444,22.2212196 C54.6106784,22.8901382 54.8863875,23.5791028 55.1238552,24.2871881 L44.3039656,24.2871881 C44.078834,24.9601159 43.8888599,25.6496973 43.7371273,26.3528483 L55.6900768,26.3528483 C55.9762715,27.6851343 56.1286209,29.0673811 56.1286209,30.4854021 C56.1286209,32.6519089 55.7755034,34.7373066 55.1238552,36.6848498 L44.3039656,36.6848498 C44.5414333,37.3923183 44.8171425,38.0822081 45.1298596,38.7520519 L54.2973444,38.7520519 C53.9624225,39.4644548 53.5880255,40.1543446 53.1716861,40.8186372 L46.2549011,40.8186372 C46.7060897,41.5384418 47.2032297,42.2286399 47.7429289,42.8833722 L51.6845835,42.8833722 C51.0785784,43.6195219 50.4201454,44.3103368 49.7132936,44.9499575 C53.1769289,48.0882312 57.7705401,50 62.8141062,50 C73.591745,50 82.328704,41.2636578 82.328704,30.4854021 C82.328704,19.7083801 73.591745,10.9701875 62.8141062,10.9701875" id="Fill-334" fill="#FF9900"></path>
                <path d="M32.056803,32.6219942 C31.8344469,32.5967054 31.7363759,32.588687 31.5837181,32.588687 C30.3828103,32.588687 29.7755716,33.0007088 29.7755716,33.8145752 C29.7755716,34.3157245 30.0719436,34.6343012 30.5345429,34.6343012 C31.3977532,34.6343012 32.0197951,33.8127248 32.056803,32.6219942 L32.056803,32.6219942 Z M33.5978755,36.2089893 L31.8418485,36.2089893 L31.8822489,35.3747685 C31.3468673,36.0335099 30.6323055,36.3480775 29.6617722,36.3480775 C28.5139091,36.3480775 27.726565,35.4518684 27.726565,34.1494971 C27.726565,32.1890012 29.0955506,31.0457641 31.4458635,31.0457641 C31.6867236,31.0457641 31.9945063,31.0679689 32.3096906,31.1077524 C32.3750713,30.841912 32.3923417,30.7290378 32.3923417,30.585632 C32.3923417,30.0527176 32.0234959,29.8528747 31.0338417,29.8528747 C29.9973109,29.8423891 29.1424273,30.1005195 28.7911603,30.2158609 C28.813365,30.0820155 29.085065,28.4052472 29.085065,28.4052472 C30.1404083,28.0949973 30.8367744,27.9790391 31.6204177,27.9790391 C33.439975,27.9790391 34.4037235,28.7956811 34.4015647,30.3395292 C34.4052655,30.7537098 34.3364924,31.2628774 34.2300946,31.9345716 C34.0462885,33.1003219 33.651537,35.600517 33.5978755,36.2089893 L33.5978755,36.2089893 Z" id="Fill-336" fill="#000066"></path>
                <polyline id="Fill-337" fill="#000066" points="26.8399163 36.2089893 24.7209031 36.2089893 25.9353805 28.6001557 23.2248569 36.2089893 21.7812387 36.2089893 21.6026753 28.6427149 20.3271348 36.2089893 18.3441258 36.2089893 20.0005397 26.3102891 23.0472188 26.3102891 23.2313333 31.8509953 25.0900573 26.3102891 28.4784431 26.3102891 26.8399163 36.2089893"></polyline>
                <path d="M65.4318015,32.6219942 C65.2094454,32.5967054 65.112608,32.588687 64.9602586,32.588687 C63.7584256,32.588687 63.1518037,33.0007088 63.1518037,33.8145752 C63.1518037,34.3157245 63.446942,34.6343012 63.910775,34.6343012 C64.7733685,34.6343012 65.3957188,33.8127248 65.4318015,32.6219942 L65.4318015,32.6219942 Z M66.9737992,36.2089893 L65.218389,36.2089893 L65.2581726,35.3747685 C64.722791,36.0335099 64.0085376,36.3480775 63.0386211,36.3480775 C61.889216,36.3480775 61.1027971,35.4518684 61.1027971,34.1494971 C61.1027971,32.1890012 62.4723995,31.0457641 64.8220956,31.0457641 C65.0626472,31.0457641 65.3698132,31.0679689 65.6853059,31.1077524 C65.750995,30.841912 65.767957,30.7290378 65.767957,30.585632 C65.767957,30.0527176 65.3991111,29.8528747 64.409457,29.8528747 C63.3729262,29.8423891 62.518351,30.1005195 62.1658503,30.2158609 C62.1892887,30.0820155 62.4616055,28.4052472 62.4616055,28.4052472 C63.5163319,28.0949973 64.2133149,27.9790391 64.9957245,27.9790391 C66.8165154,27.9790391 67.7790304,28.7956811 67.77718,30.3395292 C67.7808808,30.7537098 67.7127245,31.2628774 67.6057099,31.9345716 C67.4225205,33.1003219 67.0268439,35.600517 66.9737992,36.2089893 L66.9737992,36.2089893 Z" id="Fill-338" fill="#000066"></path>
                <path d="M43.0133136,36.0865546 C42.433214,36.2691272 41.9814087,36.3480775 41.4910534,36.3480775 C40.4082626,36.3480775 39.8170607,35.7257272 39.8170607,34.5794061 C39.8019491,34.223513 39.9728025,33.2875204 40.1072647,32.4338705 C40.2300077,31.681684 41.0262953,26.9403494 41.0262953,26.9403494 L43.131739,26.9403494 L42.8859445,28.158836 L44.1580927,28.158836 L43.8709727,30.0937347 L42.594507,30.0937347 C42.3499461,31.6243217 42.0011463,33.5314644 41.9971371,33.7843521 C41.9971371,34.1994578 42.2185679,34.3807968 42.7228012,34.3807968 C42.964278,34.3807968 43.1511682,34.3561248 43.2939571,34.3049305 L43.0133136,36.0865546" id="Fill-339" fill="#000066"></path>
                <path d="M49.4699664,36.0214823 C48.7464611,36.2426048 48.0491697,36.3505446 47.3093192,36.3480775 C44.9516047,36.3449935 43.7226325,35.1144793 43.7226325,32.7567648 C43.7226325,30.0052241 45.2859098,27.9790391 47.4086238,27.9790391 C49.1446049,27.9790391 50.253918,29.1133326 50.253918,30.8915643 C50.253918,31.4827663 50.1780517,32.0588566 49.9939372,32.8717978 L45.8003202,32.8717978 C45.6587648,34.0397069 46.4057085,34.526053 47.6315967,34.526053 C48.3844,34.526053 49.0647294,34.3706196 49.8206167,34.0199693 L49.4699664,36.0214823 L49.4699664,36.0214823 Z M48.2863289,31.2493078 C48.2983565,31.0812301 48.5093018,29.8121659 47.3056184,29.8121659 C46.6357746,29.8121659 46.1555965,30.3234924 45.9609964,31.2493078 L48.2863289,31.2493078 L48.2863289,31.2493078 Z" id="Fill-340" fill="#000066"></path>
                <path d="M34.8684816,30.7040574 C34.8684816,31.7214675 35.3619209,32.4236933 36.4814112,32.9513649 C37.3390704,33.3550599 37.4726074,33.4744105 37.4726074,33.839864 C37.4726074,34.3410132 37.0938927,34.5686121 36.2559712,34.5686121 C35.6234437,34.5686121 35.0356342,34.4693074 34.3574636,34.2500354 C34.3574636,34.2500354 34.0795956,36.0251831 34.0663344,36.109993 C34.5477461,36.2142321 34.9770383,36.3113779 36.2710828,36.3480775 C38.5063626,36.3480775 39.5388843,35.4968947 39.5388843,33.6572914 C39.5388843,32.5513707 39.107125,31.9021896 38.0456137,31.4136848 C37.1577314,31.006289 37.0550344,30.9150027 37.0550344,30.5393721 C37.0550344,30.1042203 37.4075351,29.8818642 38.0918737,29.8818642 C38.5079046,29.8818642 39.0756682,29.9262738 39.6144422,30.0024485 L39.9157486,28.1353976 C39.3674142,28.0481206 38.5353522,27.9790391 38.0511649,27.9790391 C35.6814228,27.9790391 34.8607717,29.2166464 34.8684816,30.7040574" id="Fill-341" fill="#000066"></path>
                <path d="M59.7739035,28.1915264 C60.3623298,28.1915264 60.9118978,28.3444925 61.6671683,28.7259828 L62.0141178,26.5776715 C61.7026342,26.4555453 60.6105915,25.73975 59.6853928,25.73975 C58.2679885,25.73975 57.0683143,26.4441345 56.2260752,27.6040252 C54.9961778,27.1969378 54.4900941,28.0197478 53.8708279,28.8400906 L53.3203347,28.9683848 C53.3619686,28.6985352 53.3999017,28.430536 53.3878742,28.158836 L51.4412563,28.158836 C51.1760326,30.6510127 50.7051065,33.1743378 50.3365691,35.6674397 L50.24004,36.2089893 L52.3596701,36.2089893 C52.7134044,33.9101791 52.9067709,32.4388049 53.0245795,31.4420575 L53.8227175,30.9998126 C53.9426849,30.5554088 54.3149232,30.4061435 55.0637173,30.424339 C54.9659546,30.9492351 54.9129099,31.5021954 54.9129099,32.0742766 C54.9129099,34.7083171 56.3358654,36.3480775 58.6155548,36.3480775 C59.2030559,36.3480775 59.7075976,36.2709776 60.4887736,36.0581819 L60.8600867,33.8025476 C60.1575525,34.1476467 59.5823874,34.3101733 59.0608838,34.3101733 C57.829136,34.3101733 57.0837343,33.400703 57.0837343,31.8984889 C57.0837343,29.7184125 58.1915054,28.1915264 59.7739035,28.1915264" id="Fill-342" fill="#000066"></path>
                <path d="M77.7110377,26.3102891 L77.2401116,29.1700781 C76.6618624,28.4080228 76.0395122,27.8559876 75.2179358,27.8559876 C74.149023,27.8559876 73.1760224,28.6664616 72.538869,29.8599679 C71.6516035,29.6758533 70.7347316,29.3628278 70.7347316,29.3628278 L70.7341148,29.3705378 C70.8047383,28.7034696 70.8346531,28.2976158 70.8275599,28.158836 L68.8812504,28.158836 C68.616952,30.6510127 68.1454091,33.1743378 67.77718,35.6674397 L67.6797258,36.2089893 L69.7999726,36.2089893 C70.0861674,34.3511904 70.3048227,32.8067255 70.4661156,31.5836129 C71.1908546,30.9285723 71.5535324,30.3589583 72.2841309,30.3959663 C71.960003,31.1799179 71.7709541,32.082295 71.7709541,33.0081104 C71.7709541,35.0198006 72.7880558,36.3480775 74.3288199,36.3480775 C75.10537,36.3480775 75.7011979,36.0800782 76.2822226,35.4595784 L76.1823012,36.2083725 L78.1868982,36.2083725 L79.800753,26.3102891 L77.7110377,26.3102891 L77.7110377,26.3102891 Z M75.0615772,34.34934 C74.3405391,34.34934 73.975394,33.8145752 73.975394,32.762316 C73.975394,31.1799179 74.6578822,30.0582688 75.6185468,30.0582688 C76.3466781,30.0582688 76.7414295,30.6121544 76.7414295,31.6348072 C76.7414295,33.2307749 76.0475306,34.34934 75.0615772,34.34934 L75.0615772,34.34934 Z" id="Fill-343" fill="#000066"></path>
                <polyline id="Fill-344" fill="#FFFFFF" points="27.4493138 35.6214881 25.3309174 35.6214881 26.5450864 28.0126546 23.8351796 35.6214881 22.3909445 35.6214881 22.2126896 28.0567558 20.9368407 35.6214881 18.9538316 35.6214881 20.6102456 25.7237132 23.6569247 25.7237132 23.7420429 31.8509953 25.7978343 25.7237132 29.088149 25.7237132 27.4493138 35.6214881"></polyline>
                <path d="M32.6665089,32.0357266 C32.4444612,32.0098211 32.3463902,32.0027279 32.1937324,32.0027279 C30.9928246,32.0027279 30.3852775,32.4141329 30.3852775,33.2273825 C30.3852775,33.7279149 30.6819579,34.0483421 31.1448656,34.0483421 C32.0077675,34.0483421 32.6298094,33.2267657 32.6665089,32.0357266 L32.6665089,32.0357266 Z M34.207273,35.6214881 L32.4521712,35.6214881 L32.4922632,34.7878842 C31.9568816,35.4463172 31.2423198,35.7611931 30.2717865,35.7611931 C29.123615,35.7611931 28.3365793,34.8637505 28.3365793,33.5616876 C28.3365793,31.6008833 29.7058733,30.4591882 32.0561862,30.4591882 C32.2964295,30.4591882 32.6042122,30.4810846 32.9197049,30.5217933 C32.9850856,30.2553361 33.002356,30.1421535 33.002356,29.9981309 C33.002356,29.4655249 32.6335102,29.267224 31.643856,29.267224 C30.6070168,29.254888 29.7524416,29.5130184 29.4008662,29.6280514 C29.4233793,29.4948228 29.6947709,27.8180545 29.6947709,27.8180545 C30.7504225,27.5084214 31.4467887,27.3915379 32.230432,27.3915379 C34.0496809,27.3915379 35.013121,28.2091051 35.011579,29.7523364 C35.0149714,30.1659002 34.9468151,30.6775351 34.8401089,31.3473789 C34.6559944,32.5122039 34.2612429,35.013941 34.207273,35.6214881 L34.207273,35.6214881 Z" id="Fill-345" fill="#FFFFFF"></path>
                <path d="M62.6235153,25.9901704 L62.2765658,28.1381732 C61.5200617,27.7579166 60.9720357,27.6040252 60.3842262,27.6040252 C58.8024449,27.6040252 57.6928234,29.1327618 57.6928234,31.3131465 C57.6928234,32.8153607 58.4385335,33.7229805 59.6702812,33.7229805 C60.1920933,33.7229805 60.768492,33.5616876 61.4694842,33.2153549 L61.0972459,35.4709892 C60.3173035,35.6834764 59.8124534,35.7611931 59.2252607,35.7611931 C56.9440293,35.7611931 55.5232326,34.1211244 55.5232326,31.4877007 C55.5232326,27.9491243 57.4874293,25.4760684 60.2950987,25.4760684 C61.2202973,25.4760684 62.3129569,25.8680442 62.6235153,25.9901704" id="Fill-346" fill="#FFFFFF"></path>
                <path d="M66.041199,32.0357266 C65.8203849,32.0098211 65.7220055,32.0027279 65.5696561,32.0027279 C64.3693651,32.0027279 63.7615096,32.4141329 63.7615096,33.2273825 C63.7615096,33.7279149 64.0578815,34.0483421 64.5204809,34.0483421 C65.3830744,34.0483421 66.005733,33.2267657 66.041199,32.0357266 L66.041199,32.0357266 Z M67.5831967,35.6214881 L65.8280949,35.6214881 L65.8678785,34.7878842 C65.3324968,35.4463172 64.6179351,35.7611931 63.6483269,35.7611931 C62.4989219,35.7611931 61.7128114,34.8637505 61.7128114,33.5616876 C61.7128114,31.6008833 63.0808718,30.4591882 65.4318015,30.4591882 C65.6720447,30.4591882 65.9792107,30.4810846 66.294395,30.5217933 C66.3600841,30.2553361 66.3773545,30.1421535 66.3773545,29.9981309 C66.3773545,29.4655249 66.0094338,29.267224 65.0191629,29.267224 C63.9832489,29.254888 63.1289821,29.5130184 62.7767898,29.6280514 C62.7989946,29.4948228 63.0706946,27.8180545 63.0706946,27.8180545 C64.1263462,27.5084214 64.8220956,27.3915379 65.6057388,27.3915379 C67.4249877,27.3915379 68.3893531,28.2091051 68.3868859,29.7523364 C68.3912035,30.1659002 68.3224304,30.6775351 68.2157242,31.3473789 C68.0322264,32.5122039 67.637475,35.013941 67.5831967,35.6214881 L67.5831967,35.6214881 Z" id="Fill-347" fill="#FFFFFF"></path>
                <path d="M43.6227111,35.4993619 C43.0432283,35.6819344 42.5908062,35.7611931 42.1010677,35.7611931 C41.0179685,35.7611931 40.4264582,35.1385344 40.4264582,33.9934469 C40.411655,33.6363203 40.5828168,32.7018697 40.7175874,31.8472945 C40.8394052,31.0944912 41.6360012,26.3537735 41.6360012,26.3537735 L43.7420617,26.3537735 L43.4956504,27.5719517 L44.5768992,27.5719517 L44.2888541,29.5062336 L43.2042129,29.5062336 C42.959652,31.0383625 42.6108522,32.9442717 42.6065346,33.1971593 C42.6065346,33.6134987 42.8288906,33.793604 43.3325071,33.793604 C43.5739839,33.793604 43.7605656,33.7698573 43.9039714,33.7174294 L43.6227111,35.4993619" id="Fill-348" fill="#FFFFFF"></path>
                <path d="M50.0805975,35.4355232 C49.3567837,35.6572625 48.6579504,35.7618099 47.9190251,35.7611931 C45.5610022,35.7596511 44.3329552,34.527595 44.3329552,32.1701888 C44.3329552,29.4177229 45.8959241,27.3915379 48.0170961,27.3915379 C49.7549276,27.3915379 50.8636239,28.5258315 50.8636239,30.306222 C50.8636239,30.8961903 50.786524,31.4719723 50.6045683,32.2852219 L46.4103345,32.2852219 C46.2681623,33.4531309 47.0160312,33.9404022 48.2406858,33.9404022 C48.9941059,33.9404022 49.6741269,33.7843521 50.4309394,33.4327766 L50.0805975,35.4355232 L50.0805975,35.4355232 Z M48.8966516,30.6618067 C48.9080624,30.4934205 49.1199329,29.2249732 47.9165579,29.2249732 C47.2460973,29.2249732 46.7659192,29.7372249 46.5707023,30.6618067 L48.8966516,30.6618067 L48.8966516,30.6618067 Z" id="Fill-349" fill="#FFFFFF"></path>
                <path d="M35.4778791,30.1165563 C35.4778791,31.1358168 35.9719352,31.8365005 37.0917339,32.364789 C37.9493931,32.7681756 38.0823133,32.8875262 38.0823133,33.253288 C38.0823133,33.7550541 37.703907,33.9814194 36.8653687,33.9814194 C36.233458,33.9814194 35.6453401,33.8833483 34.9668611,33.664693 C34.9668611,33.664693 34.6893015,35.4386072 34.6763487,35.5221835 C35.157452,35.6276561 35.5870526,35.7238768 36.8804803,35.7611931 C39.1163769,35.7611931 40.1488986,34.9103188 40.1488986,33.0707155 C40.1488986,31.964178 39.7165224,31.3153053 38.6553196,30.828034 C37.7671289,30.4194046 37.6650487,30.3290436 37.6650487,29.9527961 C37.6650487,29.5176444 38.017241,29.2937463 38.7021964,29.2937463 C39.1173021,29.2937463 39.6856825,29.3400062 40.2241481,29.4158725 L40.5257628,27.5491301 C39.9771201,27.4624698 39.1456749,27.3915379 38.6611792,27.3915379 C36.2908203,27.3915379 35.4707859,28.6294537 35.4778791,30.1165563" id="Fill-350" fill="#FFFFFF"></path>
                <path d="M78.7966041,35.6214881 L76.7926238,35.6214881 L76.8919285,34.8723856 C76.3105954,35.4931939 75.7150758,35.7611931 74.9385258,35.7611931 C73.3989953,35.7611931 72.3803516,34.4344583 72.3803516,32.4206093 C72.3803516,29.7430844 73.9596657,27.4862166 75.8276417,27.4862166 C76.6492181,27.4862166 77.2712599,27.8217553 77.8507427,28.584119 L78.3207436,25.7237132 L80.4101505,25.7237132 L78.7966041,35.6214881 L78.7966041,35.6214881 Z M75.6709747,33.7615305 C76.6581616,33.7615305 77.350827,32.6435821 77.350827,31.0491565 C77.350827,30.0261952 76.956384,29.4704593 76.2282527,29.4704593 C75.2672797,29.4704593 74.5850999,30.5924168 74.5850999,32.1754316 C74.5850999,33.2289245 74.9505534,33.7615305 75.6709747,33.7615305 L75.6709747,33.7615305 Z" id="Fill-351" fill="#FFFFFF"></path>
                <path d="M69.4915731,27.5719517 C69.2266579,30.0635116 68.7554234,32.5868366 68.3868859,35.0802469 L68.2903569,35.6214881 L70.4093701,35.6214881 C71.1674162,30.6988146 71.3496803,29.7381501 72.538869,29.8581175 C72.7279179,28.8505762 73.0804186,27.9682451 73.3428666,27.5235329 C72.4556011,27.3384932 71.960003,27.8399509 71.3105136,28.7929055 C71.3623247,28.3805753 71.4557698,27.9805811 71.438191,27.5719517 L69.4915731,27.5719517" id="Fill-352" fill="#FFFFFF"></path>
                <path d="M52.0518873,27.5719517 C51.7857385,30.0635116 51.3138872,32.5868366 50.9459666,35.0802469 L50.8497459,35.6214881 L52.969376,35.6214881 C53.7277305,30.6988146 53.9093778,29.7381501 55.096716,29.8581175 C55.2869986,28.8505762 55.640116,27.9682451 55.9019472,27.5235329 C55.015607,27.3384932 54.5190837,27.8399509 53.8708279,28.7929055 C53.9220222,28.3805753 54.016084,27.9805811 53.9975801,27.5719517 L52.0518873,27.5719517" id="Fill-353" fill="#FFFFFF"></path>
            </g>
        </g>
    </g>
</svg>

<svg width="100" height="60" viewBox="0 0 100 60" xmlns="http://www.w3.org/2000/svg"><title>MasterCard-dark</title><g fill="none" fill-rule="evenodd"><rect fill="#006" width="100" height="60" rx="4"/><path d="M56.13 30.485C56.13 41.265 47.39 50 36.613 50 25.836 50 17.1 41.264 17.1 30.485c-.002-10.778 8.736-19.515 19.514-19.515 10.778 0 19.515 8.737 19.515 19.515" fill="#C00"/><path d="M62.814 10.97c-5.043 0-9.637 1.913-13.1 5.05-.706.64-1.364 1.332-1.97 2.067h3.942c.538.656 1.034 1.345 1.488 2.067h-6.92c-.413.664-.79 1.353-1.124 2.067h9.167c.314.67.59 1.36.827 2.067h-10.82c-.225.673-.415 1.363-.567 2.066H55.69c.286 1.332.44 2.714.44 4.132 0 2.167-.354 4.252-1.006 6.2h-10.82c.237.707.513 1.397.826 2.067h9.167c-.335.712-.71 1.402-1.125 2.067h-6.917c.45.718.948 1.41 1.488 2.063h3.942c-.606.737-1.265 1.427-1.972 2.067 3.464 3.138 8.058 5.05 13.1 5.05 10.78 0 19.516-8.736 19.516-19.515 0-10.777-8.738-19.515-19.516-19.515" fill="#F90"/><path d="M32.057 32.622c-.223-.025-.32-.033-.473-.033-1.2 0-1.808.41-1.808 1.225 0 .5.296.82.76.82.862 0 1.484-.822 1.52-2.013zm1.54 3.587h-1.755l.04-.835c-.535.66-1.25.973-2.22.973-1.148 0-1.935-.896-1.935-2.2 0-1.96 1.37-3.102 3.72-3.102.24 0 .548.022.863.062.065-.266.082-.38.082-.522 0-.533-.37-.733-1.358-.733-1.037-.01-1.892.248-2.243.363.023-.134.295-1.81.295-1.81 1.055-.31 1.752-.427 2.535-.427 1.82 0 2.784.816 2.782 2.36.003.414-.066.923-.172 1.595-.184 1.165-.578 3.666-.632 4.274zM26.84 36.21h-2.12l1.215-7.61-2.71 7.61H21.78l-.177-7.567-1.276 7.566h-1.983L20 26.31h3.047l.184 5.54 1.86-5.54h3.388l-1.638 9.9M65.432 32.622c-.223-.025-.32-.033-.472-.033-1.202 0-1.808.41-1.808 1.225 0 .5.295.82.76.82.86 0 1.484-.822 1.52-2.013zm1.542 3.587h-1.756l.04-.835c-.535.66-1.25.973-2.22.973-1.15 0-1.935-.896-1.935-2.2 0-1.96 1.37-3.102 3.72-3.102.24 0 .547.022.862.062.066-.266.083-.38.083-.522 0-.533-.37-.733-1.36-.733-1.035-.01-1.89.248-2.242.363.023-.134.296-1.81.296-1.81 1.054-.31 1.75-.427 2.534-.427 1.82 0 2.783.816 2.78 2.36.005.414-.063.923-.17 1.595-.183 1.165-.58 3.666-.632 4.274zM43.013 36.087c-.58.182-1.032.26-1.522.26-1.082 0-1.673-.62-1.673-1.768-.015-.356.156-1.292.29-2.146.123-.752.92-5.494.92-5.494h2.105l-.246 1.22h1.272l-.287 1.934h-1.275c-.245 1.53-.594 3.437-.598 3.69 0 .415.222.597.726.597.24 0 .428-.024.57-.075l-.28 1.782M49.47 36.02c-.724.223-1.42.33-2.16.328-2.358-.003-3.587-1.234-3.587-3.59 0-2.753 1.563-4.78 3.686-4.78 1.735 0 2.844 1.135 2.844 2.914 0 .59-.076 1.167-.26 1.98H45.8c-.14 1.168.606 1.654 1.832 1.654.752 0 1.433-.155 2.19-.506l-.352 2zm-1.184-4.77c.012-.17.223-1.438-.98-1.438-.67 0-1.15.51-1.345 1.437h2.326zM34.868 30.704c0 1.017.494 1.72 1.613 2.247.86.405.993.524.993.89 0 .5-.38.73-1.217.73-.633 0-1.22-.1-1.9-.32l-.29 1.86c.482.104.91.2 2.205.238 2.236 0 3.27-.85 3.27-2.69 0-1.107-.433-1.756-1.494-2.244-.888-.408-.99-.5-.99-.875 0-.436.352-.658 1.036-.658.416 0 .984.044 1.522.12l.302-1.867c-.55-.087-1.38-.156-1.865-.156-2.37 0-3.19 1.237-3.182 2.724M59.774 28.192c.588 0 1.138.152 1.893.534l.347-2.148c-.31-.122-1.403-.838-2.33-.838-1.416 0-2.616.704-3.458 1.864-1.23-.407-1.736.416-2.355 1.236l-.55.128c.042-.27.08-.537.068-.81H51.44c-.264 2.493-.735 5.016-1.103 7.51l-.097.54h2.12c.353-2.298.547-3.77.665-4.766l.798-.442c.12-.445.492-.594 1.24-.576-.097.525-.15 1.078-.15 1.65 0 2.634 1.423 4.274 3.703 4.274.587 0 1.092-.077 1.873-.29l.37-2.255c-.702.345-1.278.507-1.8.507-1.23 0-1.976-.91-1.976-2.412 0-2.18 1.108-3.706 2.69-3.706M77.71 26.31l-.47 2.86c-.578-.762-1.2-1.314-2.022-1.314-1.07 0-2.042.81-2.68 2.004-.886-.184-1.803-.497-1.803-.497v.008c.07-.667.1-1.072.093-1.21H68.88c-.263 2.49-.735 5.014-1.103 7.507l-.097.542h2.12c.286-1.86.505-3.403.666-4.626.725-.655 1.088-1.225 1.818-1.188-.324.784-.513 1.686-.513 2.612 0 2.012 1.018 3.34 2.56 3.34.775 0 1.37-.268 1.952-.888l-.1.748h2.005L79.8 26.31h-2.09zm-2.648 8.04c-.72 0-1.087-.535-1.087-1.588 0-1.582.683-2.704 1.644-2.704.727 0 1.12.554 1.12 1.577 0 1.596-.692 2.714-1.678 2.714z" fill="#006"/><path fill="#FFF" d="M27.45 35.62h-2.12l1.215-7.607-2.71 7.608H22.39l-.177-7.563-1.276 7.564h-1.983l1.656-9.896h3.047l.085 6.127 2.056-6.126h3.29l-1.64 9.897M32.667 32.036c-.223-.026-.32-.033-.473-.033-1.2 0-1.81.41-1.81 1.224 0 .5.298.82.76.82.864 0 1.486-.82 1.523-2.01zm1.54 3.585h-1.755l.04-.832c-.535.658-1.25.973-2.22.973-1.148 0-1.935-.896-1.935-2.198 0-1.96 1.37-3.103 3.72-3.103.24 0 .547.02.863.062.065-.267.082-.38.082-.524 0-.532-.368-.73-1.358-.73-1.037-.013-1.892.245-2.243.36.023-.133.295-1.81.295-1.81 1.055-.31 1.752-.426 2.535-.426 1.82 0 2.783.817 2.782 2.36.003.414-.065.926-.172 1.595-.184 1.165-.58 3.667-.633 4.274zM62.624 25.99l-.347 2.148c-.757-.38-1.305-.534-1.893-.534-1.582 0-2.69 1.53-2.69 3.71 0 1.5.745 2.41 1.976 2.41.522 0 1.098-.162 1.8-.51l-.373 2.257c-.78.213-1.285.29-1.872.29-2.28 0-3.702-1.64-3.702-4.272 0-3.54 1.964-6.012 4.772-6.012.925 0 2.018.392 2.33.514M66.04 32.036c-.22-.026-.318-.033-.47-.033-1.2 0-1.808.41-1.808 1.224 0 .5.296.82.758.82.863 0 1.486-.82 1.52-2.01zm1.543 3.585h-1.755l.04-.832c-.536.658-1.25.973-2.22.973-1.15 0-1.935-.896-1.935-2.198 0-1.96 1.368-3.103 3.72-3.103.24 0 .546.02.86.062.067-.267.084-.38.084-.524 0-.532-.368-.73-1.358-.73-1.037-.013-1.89.245-2.243.36l.294-1.81c1.056-.31 1.752-.426 2.536-.426 1.82 0 2.783.817 2.78 2.36.005.414-.064.926-.17 1.595-.184 1.165-.58 3.667-.633 4.274zM43.623 35.5c-.58.182-1.032.26-1.522.26-1.082 0-1.674-.62-1.674-1.767-.014-.357.157-1.29.292-2.146.12-.753.918-5.493.918-5.493h2.106l-.246 1.218h1.08l-.287 1.934h-1.086c-.244 1.532-.593 3.438-.597 3.69 0 .417.222.598.726.598.24 0 .428-.024.57-.077l-.28 1.782M50.08 35.436c-.723.22-1.422.326-2.16.325-2.36 0-3.587-1.232-3.587-3.59 0-2.752 1.563-4.778 3.684-4.778 1.738 0 2.847 1.134 2.847 2.914 0 .59-.077 1.166-.26 1.98H46.41c-.142 1.167.606 1.654 1.83 1.654.754 0 1.434-.156 2.19-.507l-.35 2.003zm-1.183-4.774c.01-.17.223-1.437-.98-1.437-.67 0-1.15.512-1.346 1.437h2.327zM35.478 30.117c0 1.02.494 1.72 1.614 2.248.857.403.99.523.99.888 0 .502-.378.728-1.217.728-.632 0-1.22-.097-1.898-.315l-.29 1.857c.48.106.91.202 2.203.24 2.236 0 3.27-.852 3.27-2.69 0-1.108-.433-1.757-1.495-2.244-.888-.41-.99-.5-.99-.875 0-.435.352-.66 1.037-.66.415 0 .984.047 1.522.123l.302-1.867c-.55-.088-1.38-.158-1.865-.158-2.37 0-3.19 1.237-3.182 2.725M78.797 35.62h-2.004l.1-.748c-.582.62-1.178.89-1.954.89-1.54 0-2.56-1.328-2.56-3.34 0-2.68 1.58-4.936 3.448-4.936.82 0 1.443.336 2.023 1.098l.47-2.86h2.09l-1.613 9.897zm-3.126-1.858c.988 0 1.68-1.118 1.68-2.713 0-1.024-.394-1.58-1.122-1.58-.96 0-1.643 1.122-1.643 2.705 0 1.054.366 1.587 1.086 1.587zM69.492 27.572c-.265 2.492-.737 5.015-1.105 7.508l-.097.54h2.12c.757-4.92.94-5.882 2.13-5.762.188-1.007.54-1.89.803-2.334-.887-.186-1.383.316-2.032 1.27.052-.413.146-.813.128-1.222h-1.946M52.052 27.572c-.266 2.492-.738 5.015-1.106 7.508l-.096.54h2.12c.758-4.92.94-5.882 2.127-5.762.19-1.007.543-1.89.805-2.334-.886-.186-1.383.316-2.03 1.27.05-.413.144-.813.126-1.222h-1.946"/></g></svg>
